teeny/outline/bell.svg

<svg width="15" height="15" viewBox="0 0 15 15" fill="none" xmlns="http://www.w3.org/2000/svg">
<path d="M1 10.5H14M2.5 10.5V5.5C2.5 2.73858 4.73858 0.5 7.5 0.5C10.2614 0.5 12.5 2.73858 12.5 5.5V10.5M5.5 12V12.5C5.5 13.6046 6.39543 14.5 7.5 14.5C8.60457 14.5 9.5 13.6046 9.5 12.5V12" stroke="black"/>
</svg>

<svg viewBox="0 0 15 15" xmlns="http://www.w3.org/2000/svg"><path fill="none" stroke="#000" d="M1 10.5h13m-11.5 0v-5c0-2.77 2.23-5 5-5 2.76 0 5 2.23 5 5v5m-7 1.5v.5c0 1.1.89 2 2 2 1.1 0 2-.9 2-2V12"/></svg>
